src/img/icons/arrow-down.svg

<svg width="32" height="32" viewBox="0 0 32 32" fill="none" xmlns="http://www.w3.org/2000/svg">
<path d="M15.0409 23.8879V5.94147C15.0409 5.66998 15.1313 5.4452 15.3119 5.26712C15.4923 5.08904 15.7198 5 15.9946 5C16.2695 5 16.4972 5.08904 16.6776 5.26712C16.858 5.4452 16.9482 5.66998 16.9482 5.94147V23.8879L25.3644 15.5686C25.5539 15.3893 25.7756 15.297 26.0296 15.2917C26.2836 15.2862 26.5081 15.3812 26.7032 15.5765C26.8985 15.7718 26.9974 15.9927 26.9999 16.2392C27.0027 16.4857 26.9052 16.7066 26.7074 16.9019L16.8245 26.6591C16.7005 26.7812 16.5714 26.8686 16.437 26.9213C16.3024 26.9738 16.1546 27 15.9934 27C15.832 27 15.6845 26.9738 15.551 26.9213C15.4174 26.8686 15.2886 26.7812 15.1647 26.6591L5.28174 16.9019C5.09884 16.7214 5.00498 16.5048 5.00018 16.2523C4.99537 15.9996 5.08922 15.7743 5.28174 15.5765C5.48236 15.3812 5.70814 15.2835 5.9591 15.2835C6.21005 15.2835 6.43128 15.3812 6.62279 15.5765L15.0409 23.8879Z" fill="#131212"/>
</svg>

<svg xmlns="http://www.w3.org/2000/svg" viewBox="0 0 32 32">
  <path fill="currentColor" d="M15.04 23.888V5.94c0-.271.091-.496.272-.674A.932.932 0 0 1 15.995 5c.275 0 .502.089.683.267.18.178.27.403.27.674v17.947l8.416-8.32a.968.968 0 0 1 .666-.276.896.896 0 0 1 .673.284.929.929 0 0 1 .297.663c.003.247-.095.468-.293.663l-9.883 9.757c-.123.122-.253.21-.387.262a1.21 1.21 0 0 1-.444.079 1.2 1.2 0 0 1-.442-.079 1.165 1.165 0 0 1-.386-.262l-9.883-9.757a.917.917 0 0 1 0-1.325.948.948 0 0 1 .677-.293c.251 0 .472.097.664.292l8.418 8.312Z"/>
</svg>
